modules/feathericon/icons/filter.svg

<?xml version="1.0" encoding="UTF-8"?>
<svg width="24px" height="24px" viewBox="0 0 24 24" version="1.1" xmlns="http://www.w3.org/2000/svg" xmlns:xlink="http://www.w3.org/1999/xlink">
    <!-- Generator: sketchtool 52.2 (67145) - http://www.bohemiancoding.com/sketch -->
    <title>filter</title>
    <desc>Created with sketchtool.</desc>
    <g id="web-app" stroke="none" stroke-width="1" fill="none" fill-rule="evenodd">
        <g id="filter" fill="#000000" fill-rule="nonzero">
            <path d="M18,5.97076421 L18,4 L6,4 L6,5.97076421 L12,10.2564785 L18,5.97076421 Z M13,12 L13,20 L11,22 L11,12 L4.83752361,7.59823115 C4.31193137,7.22280812 4,6.61666642 4,5.97076421 L4,4 C4,2.8954305 4.8954305,2 6,2 L18,2 C19.1045695,2 20,2.8954305 20,4 L20,5.97076421 C20,6.61666642 19.6880686,7.22280812 19.1624764,7.59823115 L13,12 Z" id="Shape"></path>
        </g>
    </g>
</svg>

<svg width="24" height="24" viewBox="0 0 24 24" xmlns="http://www.w3.org/2000/svg"><path d="M18 5.97V4H6v1.97l6 4.286 6-4.285zM13 12v8l-2 2V12L4.838 7.598A2 2 0 0 1 4 5.971V4a2 2 0 0 1 2-2h12a2 2 0 0 1 2 2v1.97a2 2 0 0 1-.838 1.628L13 12z" fill="#000" fill-rule="nonzero"/></svg>
